X: 4
T: Maud Millar - 4th setting
R: reel
S: https://thesession.org/tunes/1177
M: 4/4
L: 1/8
K: Em
gf | edBA GBDE | G2BG dGBd | eBdB A2GA |1 Beed ef :|2 Beed ~e2 ||
ge | dggf g3~b | agef g2ed | Bdeg bagb | aged ea ||
ge | d~g3 agbg | agef ~g3a | bgaf gfed | Beed efgf |]
